X:1
T:Title
%%score { 1 | ( 2 3 ) }
L:1/8
M:4/4
K:C
V:1 treble nm="Grand Piano"
V:2 bass 
V:3 bass 
V:1
 z4 z2[Q:1/4=96] [EG]2 | [EG][FA][EG][DF] [CE]2 [EG]2 | [Ec]3 [FA] [EG]2 [Ec]2 | B2 c2 d2 e2 | %4
 d4 z2 [EG]2 | [EG][FA][EG][DF] [CE]2 [EG]2 | [Ec]3 [FA] [EG]2 [Ec]2 | B3 c e2 d2 | %8
[M:3/4] [Ec]4 z2 |[M:1/4] [Ec]2 |[M:4/4] d2 d2 d2 cB | [Ec]3 [FA] [EG]2 [Ec]2 | %12
 [Gd]2 [Gd]2 [Gc]2 [Gd]2 | [Ge]4 z2 [EG]2 | [EG][FA][EG][DF] [CE]2 [EG]2 | %15
 [Ec]2 [GB][FA] [EG]2 [EG]2 | [FA][GB][Ac]A G2 B2 |[M:3/4] [Ec]6 |] %18
V:2
 z4 z2 [C,C]2 | [C,C]2 [C,C]2 [C,G,]2 [C,C]2 | [C,G,]3 [C,C] [C,C]2 [C,C]2 | %3
 [G,D]2 [G,CE]2 [G,B,F]2 [G,CG]2 | [G,B,G]4 z2[K:bass] [C,C]2 | [C,C]2 [C,C]2 [C,G,]2 [C,C]2 | %6
 [C,G,]3 [C,C] [C,C]2 [C,G,]2 | [G,D]3 [G,E] [G,CG]2 [G,B,F]2 |[M:3/4][K:bass] [C,C]4 z2 | %9
[M:1/4] [C,G,]2 |[M:4/4][K:treble] z4 z2 .E2 | [C,G,]3 [C,C] [C,C]2 [C,G,]2 | %12
 [G,B,]2 [G,B,]2 [E,C]2 [G,B,]2 | [C,C]4 z2 [C,C]2 | [C,C]2 [C,C]2 [C,G,]2 [C,C]2 | %15
 [C,G,]2 [C,C]2 [C,C]2 [C,C]2 | [F,C]2 F,-[F,CF][K:treble] [G,CE]2 [G,F]2 | %17
[M:3/4][K:bass] [C,G,]6 |] %18
V:3
 x8 | x8 | x8 | x8 | x6[K:bass] x2 | x8 | x8 | x8 |[M:3/4][K:bass] x6 |[M:1/4] x2 | %10
[M:4/4][K:treble] [G,B,G]2 [G,B,G]2 [G,B,G]2 [G,C]-[G,CD] | x8 | x8 | x8 | x8 | x8 | %16
 z2 .A,2[K:treble] z4 |[M:3/4][K:bass] x6 |] %18

